X: 30
T: Mister Fitz's Jigg
S: Fitzmaurice Collection
N: 132207
Z: BB
H: titled simply "Jigg" in the collection
L: 1/8
M: 6/8
R: jig
Q: 1/4=180
K: D
ABA AGF | A2D DFA | BcB BAF | B2E EFG |
ABA AGF | A2B d2e | def edc | BcB Bcd :|
ABc d2B | c2d ecA | ABc d2B | cAF FEF |
DFA d2B | c2d efg | afd cBA | BcB Bcd :|
%%%%%
